X: 31618
T: Pant Corlan Yr Wyn
R: polka
M: 2/4
K: Gmajor
|:B/A/|GG/A/ BG|cA/B/ cA|BG GB|dA FD|
GG/A/ BG|cc/B/ Ac|BG F/G/A/F/|GG G:|
|:d/c/|Bd dc/B/|Ac cB/A/|GB BA/G/|FA FD|
GG/A/ BG|cc/B/ Ac|BG F/G/A/F/|G2 G:|

